logo-white.svg

<?xml version="1.0" encoding="UTF-8" standalone="no"?>
<svg width="610px" height="170px" viewBox="0 0 610 170" version="1.1" xmlns="http://www.w3.org/2000/svg" xmlns:xlink="http://www.w3.org/1999/xlink" xmlns:sketch="http://www.bohemiancoding.com/sketch/ns">
    <title>logo-white</title>
    <description>Created with Sketch (http://www.bohemiancoding.com/sketch)</description>
    <defs></defs>
    <g id="Page-1" stroke="none" stroke-width="1" fill="none" fill-rule="evenodd" sketch:type="MSPage">
        <g id="logo-white" sketch:type="MSArtboardGroup" fill="#FFFFFF">
            <path d="M47.4139982,110.293484 L0,170 L135,170 L135,-1.42108547e-14 L60.3273135,94.0322718 L108.18741,169.999997 L47.4139978,170 L47.4139982,110.293484 Z M47.4139982,110.293484" id="triangle" sketch:type="MSShapeGroup"></path>
            <path d="M171.314303,111.528565 L171.605731,111.528565 C175.831449,118.522855 183.991455,122.602858 193.46289,122.602858 C209.928616,122.602858 225.374342,110.071421 225.374342,84.7171166 C225.374342,63.2971012 212.551475,48.8713764 195.502891,48.8713764 C183.991455,48.8713764 175.685734,53.9713801 170.440016,62.5685292 L170.148587,62.5685292 L169.56573,50.4742347 L157.908579,50.4742347 C158.345722,57.1770967 158.491436,64.4628163 158.491436,73.4971085 L158.491436,149.851449 L171.314303,149.851449 L171.314303,111.528565 Z M171.89716,97.539983 C171.460017,95.9371247 171.314303,94.1885521 171.314303,92.294265 L171.314303,80.1999705 C171.314303,78.4513978 171.751446,76.5571107 172.188589,74.9542524 C174.520019,65.3371026 182.825739,59.2170982 191.568603,59.2170982 C205.120041,59.2170982 212.551475,71.1656783 212.551475,85.2999742 C212.551475,101.474272 204.682898,112.69428 191.13146,112.69428 C181.951453,112.69428 174.22859,106.574275 171.89716,97.539983 C171.89716,97.539983 174.22859,106.574275 171.89716,97.539983 Z M259.225731,111.528565 L259.51716,111.528565 C263.742877,118.522855 271.902883,122.602858 281.374319,122.602858 C297.840045,122.602858 313.28577,110.071421 313.28577,84.7171166 C313.28577,63.2971012 300.462904,48.8713764 283.41432,48.8713764 C271.902883,48.8713764 263.597163,53.9713801 258.351445,62.5685292 L258.060016,62.5685292 L257.477158,50.4742347 L245.820007,50.4742347 C246.25715,57.1770967 246.402865,64.4628163 246.402865,73.4971085 L246.402865,149.851449 L259.225731,149.851449 L259.225731,111.528565 Z M259.808589,97.539983 C259.371446,95.9371247 259.225731,94.1885521 259.225731,92.294265 L259.225731,80.1999705 C259.225731,78.4513978 259.662874,76.5571107 260.100017,74.9542524 C262.431448,65.3371026 270.737168,59.2170982 279.480031,59.2170982 C293.03147,59.2170982 300.462904,71.1656783 300.462904,85.2999742 C300.462904,101.474272 292.594327,112.69428 279.042888,112.69428 C269.862882,112.69428 262.140019,106.574275 259.808589,97.539983 C259.808589,97.539983 262.140019,106.574275 259.808589,97.539983 Z M329.360004,86.6114037 C329.360004,108.177134 343.202871,122.602858 364.477172,122.602858 C373.948608,122.602858 381.380042,120.125714 384.731473,118.377141 L382.545757,108.905706 C378.902897,110.362849 374.094322,112.257137 366.954317,112.257137 C352.820021,112.257137 342.328585,102.202844 342.328585,85.8828318 C342.328585,71.3113927 351.071448,59.2170982 367.245746,59.2170982 C374.240036,59.2170982 379.048611,60.9656709 382.108614,62.5685292 L385.022901,52.6599506 C381.525756,50.9113779 374.67718,49.0170908 367.100031,49.0170908 C344.222872,49.0170908 329.360004,64.8999595 329.360004,86.6114037 C329.360004,86.6114037 329.360004,64.8999595 329.360004,86.6114037 Z M404.302865,91.7114074 C404.302865,114.297138 414.794301,122.602858 428.491453,122.602858 C441.605749,122.602858 448.745754,114.879996 451.95147,109.488563 L452.242899,109.488563 L452.971471,121 L464.191479,121 C463.90005,115.317139 463.608622,109.197134 463.608622,101.7657 L463.608622,50.4742347 L450.93147,50.4742347 L450.93147,93.7514089 C450.93147,95.9371247 450.494326,98.4142694 449.765755,100.454271 C447.871467,105.699989 441.897177,112.111422 432.571456,112.111422 C421.497163,112.111422 416.980017,103.222844 416.980017,89.5256915 L416.980017,50.4742347 L404.302865,50.4742347 L404.302865,91.7114074 Z M484.782861,87.0485469 C484.782861,108.177134 497.751442,122.602858 519.462886,122.602858 C530.53718,122.602858 538.551471,120.125714 542.922903,118.085712 L540.737187,108.905706 C535.928612,110.945707 530.391466,112.548565 521.065745,112.548565 C508.242878,112.548565 497.314299,105.40856 497.02287,88.0685476 L546.420049,88.0685476 C546.857192,86.6114037 547.002906,84.862831 547.002906,82.0942576 C547.002906,69.1256768 540.882902,48.8713764 518.005742,48.8713764 C497.314299,48.8713764 484.782861,65.6285314 484.782861,87.0485469 C484.782861,87.0485469 484.782861,65.6285314 484.782861,87.0485469 Z M497.168584,78.888541 C498.188585,69.9999631 503.871446,58.1970975 516.840027,58.1970975 C531.265752,58.1970975 534.762897,70.8742495 534.617183,78.888541 C534.617183,78.888541 534.762897,70.8742495 534.617183,78.888541 L497.168584,78.888541 Z M562.931433,117.648569 C567.885722,120.562857 575.025727,122.602858 582.74859,122.602858 C599.505745,122.602858 609.122895,113.71428 609.122895,101.328557 C609.122895,90.6914067 602.711461,84.7171166 590.617167,80.1999705 C581.291446,76.5571107 577.211443,73.9342517 577.211443,68.1056761 C577.211443,62.859958 581.43716,58.3428119 589.014309,58.3428119 C595.425742,58.3428119 600.67146,60.9656709 603.440033,62.5685292 L606.500036,53.2428082 C602.711461,50.9113779 596.591457,48.8713764 589.305737,48.8713764 C574.151441,48.8713764 564.971434,58.1970975 564.971434,69.56282 C564.971434,78.0142546 570.945724,85.0085454 583.622876,89.6714059 C593.094312,93.1685513 596.737171,96.3742679 596.737171,102.494272 C596.737171,108.468562 592.36574,112.985708 583.040019,112.985708 C576.628585,112.985708 569.925723,110.362849 566.137149,108.031419 C566.137149,108.031419 569.925723,110.362849 566.137149,108.031419 L562.931433,117.648569 Z M562.931433,117.648569" id="ppcues" sketch:type="MSShapeGroup"></path>
        </g>
    </g>
</svg>

<svg width="610" height="170" xmlns="http://www.w3.org/2000/svg" xmlns:sketch="http://www.bohemiancoding.com/sketch/ns"><title>logo-white</title><g sketch:type="MSArtboardGroup" fill="#fff"><path d="M47.414 110.293l-47.414 59.707h135v-170l-74.673 94.032 47.86 75.968h-60.773v-59.707zm0 0" sketch:type="MSShapeGroup"/><path d="M171.314 111.529h.291c4.226 6.994 12.386 11.074 21.857 11.074 16.466 0 31.911-12.531 31.911-37.886 0-21.42-12.823-35.846-29.871-35.846-11.511 0-19.817 5.1-25.063 13.697h-.291l-.583-12.094h-11.657c.437 6.703.583 13.989.583 23.023v76.354h12.823v-38.323zm.583-13.989c-.437-1.603-.583-3.351-.583-5.246v-12.094c0-1.749.437-3.643.874-5.246 2.331-9.617 10.637-15.737 19.38-15.737 13.551 0 20.983 11.949 20.983 26.083 0 16.174-7.869 27.394-21.42 27.394-9.18 0-16.903-6.12-19.234-15.154zm87.329 13.989h.291c4.226 6.994 12.386 11.074 21.857 11.074 16.466 0 31.911-12.531 31.911-37.886 0-21.42-12.823-35.846-29.871-35.846-11.511 0-19.817 5.1-25.063 13.697h-.291l-.583-12.094h-11.657c.437 6.703.583 13.989.583 23.023v76.354h12.823v-38.323zm.583-13.989c-.437-1.603-.583-3.351-.583-5.246v-12.094c0-1.749.437-3.643.874-5.246 2.331-9.617 10.637-15.737 19.38-15.737 13.551 0 20.983 11.949 20.983 26.083 0 16.174-7.869 27.394-21.42 27.394-9.18 0-16.903-6.12-19.234-15.154zm69.551-10.929c0 21.566 13.843 35.991 35.117 35.991 9.471 0 16.903-2.477 20.254-4.226l-2.186-9.471c-3.643 1.457-8.451 3.351-15.591 3.351-14.134 0-24.626-10.054-24.626-26.374 0-14.571 8.743-26.666 24.917-26.666 6.994 0 11.803 1.749 14.863 3.351l2.914-9.909c-3.497-1.749-10.346-3.643-17.923-3.643-22.877 0-37.74 15.883-37.74 37.594zm74.943 5.1c0 22.586 10.491 30.891 24.189 30.891 13.114 0 20.254-7.723 23.46-13.114h.291l.729 11.511h11.22c-.291-5.683-.583-11.803-.583-19.234v-51.291h-12.677v43.277c0 2.186-.437 4.663-1.166 6.703-1.894 5.246-7.869 11.657-17.194 11.657-11.074 0-15.591-8.889-15.591-22.586v-39.051h-12.677v41.237zm80.48-4.663c0 21.129 12.969 35.554 34.68 35.554 11.074 0 19.089-2.477 23.46-4.517l-2.186-9.18c-4.809 2.04-10.346 3.643-19.671 3.643-12.823 0-23.751-7.14-24.043-24.48h49.397c.437-1.457.583-3.206.583-5.974 0-12.969-6.12-33.223-28.997-33.223-20.691 0-33.223 16.757-33.223 38.177zm12.386-8.16c1.02-8.889 6.703-20.691 19.671-20.691 14.426 0 17.923 12.677 17.777 20.691h-37.449zm65.763 38.76c4.954 2.914 12.094 4.954 19.817 4.954 16.757 0 26.374-8.889 26.374-21.274 0-10.637-6.411-16.611-18.506-21.129-9.326-3.643-13.406-6.266-13.406-12.094 0-5.246 4.226-9.763 11.803-9.763 6.411 0 11.657 2.623 14.426 4.226l3.06-9.326c-3.789-2.331-9.909-4.371-17.194-4.371-15.154 0-24.334 9.326-24.334 20.691 0 8.451 5.974 15.446 18.651 20.109 9.471 3.497 13.114 6.703 13.114 12.823 0 5.974-4.371 10.491-13.697 10.491-6.411 0-13.114-2.623-16.903-4.954l-3.206 9.617zm0 0" sketch:type="MSShapeGroup"/></g></svg>
